packages/katcn/src/icons/svg/book.svg

<svg width="24" height="25" viewBox="0 0 24 25" fill="none" xmlns="http://www.w3.org/2000/svg">
<path fill-rule="evenodd" clip-rule="evenodd" d="M7.34783 4.20801C6.64651 4.20801 6 4.81018 6 5.6876V15.5725C6.41524 15.3973 6.88012 15.3112 7.37986 15.3407H16.5652C17.2665 15.3407 17.913 14.7385 17.913 13.8611V5.6876C17.913 4.78494 17.2429 4.20801 16.6522 4.20801H7.34783ZM4 18.7284V5.6876C4 3.80992 5.44045 2.20801 7.34783 2.20801H16.6522C18.4962 2.20801 19.913 3.83516 19.913 5.6876V13.8611C19.913 15.7388 18.4726 17.3407 16.5652 17.3407H7.34783C7.32439 17.3407 7.30097 17.3398 7.27759 17.3382C6.64597 17.2937 6 17.8319 6 18.7284C6 19.6058 6.64651 20.208 7.34783 20.208H16.6522C17.3535 20.208 18 19.6058 18 18.7284C18 18.1761 18.4477 17.7284 19 17.7284C19.5523 17.7284 20 18.1761 20 18.7284C20 20.6061 18.5596 22.208 16.6522 22.208H7.34783C5.44045 22.208 4 20.6061 4 18.7284Z" fill="black"/>
</svg>

<svg xmlns="http://www.w3.org/2000/svg" fill="none" viewBox="0 0 24 25"><path fill="#000" fill-rule="evenodd" d="M7.348 4.208C6.647 4.208 6 4.81 6 5.688v9.885c.415-.176.88-.262 1.38-.232h9.185c.701 0 1.348-.602 1.348-1.48V5.688c0-.903-.67-1.48-1.26-1.48zM4 18.728V5.688c0-1.878 1.44-3.48 3.348-3.48h9.304c1.844 0 3.261 1.627 3.261 3.48v8.173c0 1.878-1.44 3.48-3.348 3.48H7.348q-.036 0-.07-.003C6.646 17.294 6 17.832 6 18.728c0 .878.647 1.48 1.348 1.48h9.304c.701 0 1.348-.602 1.348-1.48a1 1 0 1 1 2 0c0 1.878-1.44 3.48-3.348 3.48H7.348C5.44 22.208 4 20.606 4 18.728" clip-rule="evenodd"/></svg>
